plasma/desktoptheme/Materia/icons/office.svg

<svg xmlns="http://www.w3.org/2000/svg" width="32" height="32" version="1.1">
 <g id="office-chart-pie">
  <rect style="opacity:0.001" width="32" height="32" x="0" y="0"/>
  <g transform="translate(-0.50048095,-1.2566081e-6)">
   <path style="opacity:0.2" d="m 16,2.9997517 c -1.307197,0.018684 -2.240232,0.8058961 -2.677734,2.109375 l 0.01758,-0.058594 -2.054688,5.9492193 -6.925781,0 c -0.015101,-2.42e-4 -0.029821,-2.42e-4 -0.044922,0 -0.8271266,0.02681 -1.5721928,0.512609 -2.0976562,1.152344 -1.136421,1.304496 -0.8962089,3.657981 0.546875,4.630859 l 5.4453125,3.978516 -2.1132813,6.566406 c -0.00235,0.0073 -0.00365,0.01418 -0.00586,0.02148 -0.322905,1.060759 -0.019257,2.152805 0.7929687,2.900391 0.00587,0.0055 0.011571,0.01219 0.017578,0.01758 0.9760412,0.867686 2.3489216,0.977964 3.4511713,0.259766 0.02097,-0.01357 0.04034,-0.02832 0.06055,-0.04297 L 16,26.499752 l 5.587891,3.984375 c 0.02021,0.01466 0.03958,0.02941 0.06055,0.04297 1.10225,0.718198 2.475129,0.60792 3.451171,-0.259766 0.006,-0.0054 0.01167,-0.01206 0.01758,-0.01758 0.812225,-0.747586 1.115873,-1.839632 0.792968,-2.900391 -0.0022,-0.0073 -0.0035,-0.01421 -0.0059,-0.02148 l -2.113281,-6.566406 5.445312,-3.978516 c 1.443084,-0.972878 1.683296,-3.326363 0.546875,-4.630859 -0.525463,-0.639735 -1.270529,-1.125534 -2.097656,-1.152344 -0.0151,-2.42e-4 -0.02982,-2.42e-4 -0.04492,0 l -6.925781,0 -2.054688,-5.9492191 0.01758,0.058594 C 18.240232,3.8056478 17.307197,3.0184357 16,2.9997517 Z"/>
   <path style="fill:#ffbc2c" transform="translate(0.49999991,0)" d="M 15.5,2 C 14.192803,2.018684 13.259768,2.8058961 12.822266,4.109375 L 12.839844,4.0507812 10.785156,10 3.859375,10 C 3.844274,9.9997578 3.829554,9.9997578 3.814453,10 2.9873264,10.02681 2.2422602,10.512609 1.7167968,11.152344 0.58037578,12.45684 0.82058787,14.810325 2.2636718,15.783203 l 5.4453125,3.978516 -2.1132813,6.566406 c -0.00235,0.0073 -0.00365,0.01418 -0.00586,0.02148 -0.322905,1.060759 -0.019257,2.152805 0.7929687,2.900391 0.0059,0.0055 0.011568,0.01218 0.017578,0.01758 0.9760412,0.867686 2.348922,0.977964 3.4511719,0.259766 0.02097,-0.01357 0.040337,-0.02832 0.060547,-0.04297 L 15.5,25.5 l 5.587891,3.984375 c 0.02021,0.01466 0.03958,0.02941 0.06055,0.04297 1.10225,0.718198 2.475129,0.60792 3.451171,-0.259766 0.006,-0.0054 0.01167,-0.01206 0.01758,-0.01758 0.812225,-0.747586 1.115873,-1.839632 0.792968,-2.900391 -0.0022,-0.0073 -0.0035,-0.01421 -0.0059,-0.02148 l -2.113281,-6.566406 5.445312,-3.978516 C 30.179412,14.810325 30.419624,12.45684 29.283203,11.152344 28.75774,10.512609 28.012674,10.02681 27.185547,10 c -0.0151,-2.422e-4 -0.02982,-2.422e-4 -0.04492,0 l -6.925781,0 -2.054688,-5.9492188 0.01758,0.058594 C 17.740232,2.8058961 16.807197,2.018684 15.5,2 Z"/>
   <path style="opacity:0.2;fill:#ffffff" d="M 16,2 C 14.692803,2.018684 13.759768,2.8058961 13.322266,4.109375 L 13.339844,4.0507812 11.285156,10 4.359375,10 C 4.344274,9.9997578 4.3295541,9.9997578 4.3144531,10 3.4873265,10.02681 2.7422603,10.512609 2.2167969,11.152344 1.6227145,11.83429 1.4133568,12.800795 1.546875,13.708984 1.6273839,13.134555 1.8401056,12.584747 2.2167969,12.152344 2.7422603,11.512609 3.4873265,11.02681 4.3144531,11 c 0.015101,-2.42e-4 0.029821,-2.42e-4 0.044922,0 l 6.9257809,0 2.054688,-5.9492188 -0.01758,0.058594 C 13.759768,3.8058961 14.692803,3.018684 16,3 c 1.307197,0.018684 2.240265,0.8058929 2.677734,2.109375 L 18.660156,5.0507812 20.714844,11 l 6.925781,0 c 0.0151,-2.42e-4 0.02982,-2.42e-4 0.04492,0 0.827127,0.02681 1.572193,0.512609 2.097656,1.152344 0.376691,0.432403 0.589413,0.982211 0.669922,1.55664 0.133518,-0.908189 -0.07584,-1.874694 -0.669922,-2.55664 C 29.25774,10.512609 28.512674,10.02681 27.685547,10 c -0.0151,-2.422e-4 -0.02982,-2.422e-4 -0.04492,0 l -6.925781,0 -2.054688,-5.9492188 0.01758,0.058594 C 18.240232,2.8058961 17.307197,2.018684 16,2 Z M 7.9492188,20.572266 6.0957031,26.328125 c -0.00235,0.0073 -0.00365,0.01418 -0.00586,0.02148 -0.1364147,0.448129 -0.1545077,0.901066 -0.076172,1.332032 0.020171,-0.110727 0.042543,-0.22156 0.076172,-0.332032 0.00221,-0.0073 0.00351,-0.01418 0.00586,-0.02148 L 8.2089844,20.761719 7.9492188,20.572266 Z m 16.1015622,0 -0.259765,0.189453 2.113281,6.566406 c 0.0024,0.0073 0.0037,0.01418 0.0059,0.02148 0.03363,0.110472 0.056,0.221305 0.07617,0.332032 0.07834,-0.430966 0.06024,-0.883903 -0.07617,-1.332032 -0.0022,-0.0073 -0.0035,-0.01421 -0.0059,-0.02148 l -1.853516,-5.755859 z"/>
  </g>
 </g>
</svg>

<svg xmlns="http://www.w3.org/2000/svg" width="32" height="32" version="1.1">
 <defs id="materia">
  <style id="current-color-scheme" type="text/css">
   .ColorScheme-Background {color:#181818; } .ColorScheme-ButtonBackground { color:#343434; } .ColorScheme-Highlight { color:#1a73e8; } .ColorScheme-Text { color:#dfdfdf; } .ColorScheme-ViewBackground { color:#242424; } .ColorScheme-NegativeText { color:#ff4747; }
  </style>
 </defs>
 <g id="office-chart-pie">
  <rect style="opacity:0.001" width="32" height="32" x="0" y="0"/>
  <g transform="translate(-0.50048095,-1.2566081e-6)">
   <path style="fill:currentColor" class="ColorScheme-Text" transform="translate(0.50048095,1.2566081e-6)" d="M 15.5 2 C 14.192803 2.018684 13.259768 2.8058961 12.822266 4.109375 L 12.839844 4.0507812 L 10.785156 10 L 3.859375 10 C 3.844274 9.9997578 3.8295541 9.9997578 3.8144531 10 C 2.9873265 10.02681 2.2422603 10.512609 1.7167969 11.152344 C 0.58037585 12.45684 0.82058794 14.810325 2.2636719 15.783203 L 7.7089844 19.761719 L 5.5957031 26.328125 C 5.5933531 26.335425 5.5920537 26.342309 5.5898438 26.349609 C 5.2669387 27.410368 5.5705868 28.502414 6.3828125 29.25 C 6.3887125 29.2555 6.3943806 29.262178 6.4003906 29.267578 C 7.3764318 30.135264 8.7493126 30.245542 9.8515625 29.527344 C 9.8725325 29.513774 9.8918994 29.499025 9.9121094 29.484375 L 15.5 25.5 L 21.087891 29.484375 C 21.108101 29.499035 21.127467 29.513784 21.148438 29.527344 C 22.250688 30.245542 23.623567 30.135264 24.599609 29.267578 C 24.605609 29.262178 24.611277 29.25552 24.617188 29.25 C 25.429413 28.502414 25.733061 27.410368 25.410156 26.349609 C 25.407956 26.342309 25.406697 26.335395 25.404297 26.328125 L 23.291016 19.761719 L 28.736328 15.783203 C 30.179449 14.810322 30.419624 12.45684 29.283203 11.152344 C 28.75774 10.512609 28.012674 10.02681 27.185547 10 C 27.170447 9.9997578 27.155725 9.9997578 27.140625 10 L 20.214844 10 L 18.160156 4.0507812 L 18.177734 4.109375 C 17.740228 2.8058959 16.807197 2.018684 15.5 2 z M 15.5 5.5390625 L 18.076172 13 L 26.910156 13 C 26.920715 13.00951 26.926938 13.010491 26.964844 13.056641 L 26.992188 13.089844 L 27.021484 13.123047 C 26.846489 12.92217 26.770238 13.489317 27.058594 13.294922 L 27.011719 13.328125 L 19.771484 18.617188 L 22.380859 26.720703 L 15.5 21.816406 L 8.6210938 26.720703 L 11.228516 18.617188 L 3.9882812 13.328125 L 3.9414062 13.294922 C 4.2298037 13.48935 4.1535116 12.92217 3.9785156 13.123047 L 4.0078125 13.089844 L 4.0351562 13.056641 C 4.0728507 13.010746 4.0771966 13.009606 4.0878906 13 L 12.923828 13 L 15.5 5.5390625 z M 22.541016 27.222656 L 22.552734 27.257812 L 22.554688 27.269531 C 22.491879 27.079285 22.504904 27.106495 22.541016 27.222656 z"/>
  </g>
 </g>
</svg>
